icons/svg/calendar.svg

﻿<?xml version="1.0" encoding="utf-8"?>
<!DOCTYPE svg PUBLIC "-//W3C//DTD SVG 1.1//EN" "http://www.w3.org/Graphics/SVG/1.1/DTD/svg11.dtd">
<svg xmlns="http://www.w3.org/2000/svg" xmlns:xlink="http://www.w3.org/1999/xlink" version="1.1" baseProfile="full" width="24" height="24" viewBox="0 0 24.00 24.00" enable-background="new 0 0 24.00 24.00" xml:space="preserve">
	<path fill="#000000" fill-opacity="1" stroke-width="0.2" stroke-linejoin="round" d="M 18.9994,18.9981L 4.9994,18.9981L 4.9994,7.99807L 18.9994,7.99807M 15.9994,0.998068L 15.9994,2.99807L 7.9994,2.99807L 7.9994,0.998068L 5.9994,0.998068L 5.9994,2.99807L 4.9994,2.99807C 3.8934,2.99807 3.00939,3.89306 3.00939,4.99807L 2.9994,18.9981C 2.9994,20.1021 3.8934,20.9981 4.9994,20.9981L 18.9994,20.9981C 20.1024,20.9981 20.9994,20.1021 20.9994,18.9981L 20.9994,4.99807C 20.9994,3.89306 20.1024,2.99807 18.9994,2.99807L 17.9994,2.99807L 17.9994,0.998068M 16.9994,11.9981L 11.9994,11.9981L 11.9994,16.9981L 16.9994,16.9981L 16.9994,11.9981 Z "/>
</svg>

<svg xmlns="http://www.w3.org/2000/svg" version="1.1" baseProfile="full" width="24" height="24" viewBox="0 0 24.00 24.00" xml:space="preserve"><path fill="#000" fill-opacity="1" stroke-width=".2" stroke-linejoin="round" d="M19 18.998H5v-11h14m-3-7v2H8v-2H6v2H5c-1.107 0-1.99.895-1.99 2l-.01 14c0 1.104.893 2 2 2h14c1.102 0 2-.896 2-2v-14c0-1.105-.898-2-2-2h-1v-2m-1 11h-5v5h5v-5z"/></svg>
